X:1
T:Take Your Girlie To The Movies
T:Take Your Girlie To The Movies
T:(If You Can't Make Love At Home)
T:Music by Pete Wendling arr. by Fred E. Ahlert 
T:      Words by Edgar Leslie and Bert Kalmar 
T:Copyright MCMXIX by Waterson, Berlin, and Snyder Co.
T:Copyright MCMXIX by Waterson, Berlin, and Snyder Co.
C:Pete Wendling
Z:Edgar Leslie and Bert Kalmar
Z:Copyright MCMXIX by Waterson, Berlin, and Snyder Co.
%%score 1 { ( 2 4 ) | ( 3 5 ) }
L:1/8
M:2/4
K:C
V:1 treble nm="Voice"
V:2 treble nm="Piano"
V:4 treble 
V:3 bass 
V:5 bass 
V:1
 z4 | z4 | z4 | z4 | z4 | z4 | z4 | z4 |:S z4 | z4 | z4 | z4 :|"^Voice" G2 A2 | B2 c2 | ^c d2 A- | %15
w: ||||||||||||Bea- trice|Fair- fax|gives ad- vice,|
w: ||||||||||||Sweet- hearts|al- ways|used to spoon,|
 A4 | B d B A- | A2 A2 | A4- | A2 z2 | G2 A2 | A2 A2 | A4- | A2 z2 | A2 B2 | B2 B2 | B4- | B2 z2 | %28
w: _|To an- y one|_ in|love;|_|That's why|John- ny|Gray,|_|Wrote to|her one|day;|_|
w: _|In a big mor|_ ris-|chair;|_|Young folks|of to-|day,|_|Have a|dif- f'rent|way;|_|
 G2 A2 | B2 c2 | ^c d2 A- | A4 | B d B A- | A2 A2 | A4- | A2 z2 | ^F A F A- | A4 | B d B d- | %39
w: "When I|call to|love my girl,|_|Her folks are al-|* ways|there;|_|That's why I'm blue,|_|What shall I do?"|
w: Far a-|way from|crank- y dad,|_|And moth- er's eag-|* le|eye;|_|It's lots of fun,|_|Here's how it's done,|
 d3 B | d ^c d =c- | c B A2 | G4- | G z z2 |: c c2 c- | c A G E | D4 | A2 c A | c2 B2 | G2 B2 | %50
w: _ And|Bea- trice said, "nev-|* er des-|pair:"|_|Take your girl-|* lie to the|mov-|ies, If you|can't make|love at|
w: _ Some|come on and give|_ it a|try.|_|||||||
 A4- | A2 z2 | G A G E | G A G E | G ^F2 =F- | F4 | A B A F | A B A F | A _A2 G- | G4 | c c2 c- | %61
w: home;|_|There's no lit- tle|broth- er there who|al- ways squeals,|_|You can say an|aw- ful lot in|sev- en reels.|_|Take your les-|
w: ||Pick a coz- y|cor- ner where it's|nice and dark,|_|Don't catch in- flu-|en- za, kiss- ing|in the park.|_||
 c A G E | D4 | A2 c A | B2 ^G2 | A2 B2 | c4- | c2 z2 | ^G A c G | A c ^G A | c c2 c- | c4 | %72
w: * sons at the|mov-|ies, And have|love scenes|of your|own;|_|When the pic- ture's|ov- er and it's|time to leave,|_|
w: |||||||Tho' she's just a|sim- ple lit- tle|rib- bon clerk,|_|
 ^G A c G | A c ^G A | c c2 c- | c4 | c c2 c- | c A G E | D4 | A2 d A | c2 B2 | A2 B2 |1 c4- | %83
w: Don't for- get to|brush the pow- der|off your sleeve;|_|Take your girl-|* ie to the|mov-|ies, If you|can't make|love at|home.|
w: Close your eyes and|think you're kiss- ing|Bil- lie Burke;|_||||||||
 c z2 z :|2 c4- | c z"^" z2!D.S.! |] %86
w: _|home.|_|
w: |||
V:2
!f!"_Piano" [CEc] [CEc]2 [CEc]- | [CEc][A,^DA][G,=DG][G,^CE] | D4 | A2 dA | c2 B2 | A2 B2 | %6
 [CEc](A/G/ ^FG | c) z !>![cegc'] z |:"^Till Ready"!p! [G,G]2 [A,A]2 | [B,B]2 [Cc]2 | %10
 [^C^c][D^Fd]A[=C=F=c]- | [CFc][B,FB][CFA][DF_A] :|!p! [G,G]2 [A,A]2 | [B,B]2 [Cc]2 | %14
 [^C^c] [D^Fd]2 [=CFA]- | [CFA][E^Fe][DFd][CFc] | [B,=FB][DFd][B,FB][B,FA]- | A2 A2 | A4- | AEF^F | %20
 [G,G]2 [A,A]2 | A2 A2 | A4- | A2 z2 | A2 B2 | B2 B2 | B4- | B[B,FB][A,A][_A,F_A] | [G,G]2 [A,A]2 | %29
 [B,B]2 [Cc]2 | [^C^c] [D^Fd]2 [=CFA]- | [CFA][E^Fe][DFd][CFc] | [B,=FB][DFd][B,FB][B,FA]- | %33
 A2 A2 | A4- | A [CA]2 [CG] | [C^F][CA][CF][CA]- | [CA][C^F][CE][CD] | [B,DB][Dd][DGB][DBd]- | %39
 d3 B | [^Fd][^E^c][Fd][=EF=c]- | [EFc][D^FB] [CA]2 | [B,G]2!<(! [CGA]2 | [^CG^A]2!<)! [D=FB]2 |: %44
!p!!f! [CEc] [CEc]2 [CEc]- | [CEc][CEA][CEG][G,CE] | D4 | A2 cA | c2 B2 | G2 B2 | %50
 [CEA][Ee][B,B][DEGd]- | [DEGd][CEc][B,EB]E | [CEG]A[B,EG]E | [A,EG]A[^A,EG]E | %54
 [B,G] [B,^F]2 [B,=F-] | F4 | [B,FA]B[B,FA]F | [B,FA]B[B,FA]F | [C^DA] [CD_A]2 [CEG]- | %59
 [CEG][Ee](((!>![EGe][DFd]))) | [CEc] [CEc]2 [CEc]- | [CEc][CEA][CEG][G,CE] | D4 | A2 [_EAc][EA] | %64
 B2 ^G2 | A2 B2 | ([C-E-c]4 | _B4) | ^GAcG | Ac^GA | [E_Bc] [EBc]2 [EBc]- | [Bc]4 | ^GAcG | Ac^GA | %74
 [C^Fc] [CFc]2 [CFc]- | c_B/c/ B_A | [CEc] [CEc]2 [CEc]- | [CEc][A,^DA][G,=DG][G,^CE] | D4 | %79
 A2 dA | c2 B2 | A2 B2 |1 [CEc][CG](^GA) | !>![C=Fc][B,B] !>![E!courtesy!=Ge][DFd] :|2 %84
 [CEc](A/G/ ^FG | c) z !>![cegc']"^" z |] %86
V:3
 [C,,C,]zG,, z | [C,,C,][B,,,B,,][_B,,,_B,,][A,,,A,,] | [D,,D,]z[D,,D,] z | [^F,,^F,]z[D,,D,] z | %4
 [D,,D,]zG,, z | [D,,D,]zG,, z | [C,,C,](A,/G,/ ^F,G, | C) z !>![C,,C,] z |: [C,,C,]zG,, z | %9
 [C,,C,]zG,, z | A,,z[D,,D,] z | [A,,,A,,][G,,,G,,][A,,,A,,][B,,,B,,] :| [C,,C,]zG,, z | %13
 [C,,C,]zG,, z | A,,z[D,,D,] z | [^F,,^F,]z[D,,D,] z | [G,,G,]z[G,,G,] z | [D,,D,]zG,, z | %18
 [C,,C,]zG,, z | [C,,C,]zG,, z | [C,,C,]zG,, z | (([E,,E,]2 [_E,,_E,]2 | [D,,D,]))zG,, z | %23
 [B,,,B,,]zG,, z | [D,,D,]z[G,,G,] z | [^F,,^F,]z[B,,,B,,] z | [E,,E,]2 [_E,,_E,][D,,D,]- | %27
 [D,,D,][G,,,G,,][A,,,A,,][B,,,B,,] | [C,,C,]zG,, z | [C,,C,]zG,, z | A,,z[D,,D,] z | %31
 [^F,,^F,]z[D,,D,] z | [G,,G,]z[G,,G,] z | [D,,D,]zG,, z | [C,,C,]zG,, z | (([E,,E,]2 [_E,,_E,]2 | %36
 [D,,D,]))z[D,,D,] z | [^F,,^F,][D,,D,][E,,E,][F,,F,] | [G,,G,]z[D,,D,] z | (([G,,G,]2 [^G,,^G,]2 | %40
 [A,,A,]))z[D,,D,] z | [A,,A,]z[D,,D,] z | G,2 E,2 | _E,2 D,2 |: [C,,C,]zG,, z | %45
 (([C,,C,]2 [_B,,,_B,,]2 | [A,,,A,,]))z[D,,D,] z | [^F,,^F,]z[D,,D,] z | [D,,D,]zG,, z | %49
 [D,,D,]zG,, z | [C,,C,]zG,, z | [C,,C,]zG,, z | [C,,C,]zG,, z | (([C,,C,]2 [^C,,^C,]2 | %54
 [D,,D,]))zG,, z | [D,,D,]zG,, z | [D,,D,]zG,, z | [D,,D,]zG,, z | ^F,,4- | F,, z !>![G,,G,]2 | %60
 [C,,C,]zG,, z | (([C,,C,]2 [_B,,,_B,,]2 | [A,,,A,,]))z[D,,D,] z | [^F,,^F,] z (([=F,,=F,]2 | %64
 [E,,E,])) z (E,2 | ^F,2 ^G,2 | A,)^G,A,=G,- | G,(C,D,E, | F,)z[C,,C,] z | (([F,,F,]2 [^F,,^F,]2 | %70
 [G,,G,]))z[C,,C,] z | [G,,G,]z[C,,C,] z | [F,,F,]z[C,,C,] z | [F,,F,]z[C,,C,] z | %74
 [_E,,_E,]z[_A,,,_A,,] z | [_E,,_E,]z[_A,,,_A,,] z | [C,,C,]zG,, z | %77
 [C,,C,][B,,,B,,][_B,,,_B,,][A,,,A,,] | [D,,D,]z[D,,D,] z | [^F,,^F,]z[D,,D,] z | [D,,D,]zG,, z | %81
 [D,,D,]zG,, z |1 [C,,C,][E,,E,] (([_E,,_E,]2 | [D,,D,])) z !>![G,,G,]2 :|2 [C,,C,](A,/G,/ ^F,G, | %85
 C) z !>![C,,C,] z |] %86
V:4
 x4 | x4 | z [^F,=C]z[F,C] | z [CD]z[C^F] | z [C=F]z[B,F] | z [CF]z[B,F] | x4 | x4 |: z [CE]z[CE] | %9
 z [EG]z[EG] | x4 | x4 :| z [CE]z[CE] | z [EG]z[EG] | x4 | x4 | x4 | [B,F][B,F] z [B,^D] | %18
 [CE]B,[CE]A,- | A,C[B,D][A,^D] | z [CE]z[CE] | z [CG]z[C^F] | [B,=F]C^CE- | E[DF]^C[=CF] | %24
 z [B,F]z[B,F] | z [B,^D]z[B,D] | [C^G]=G[B,^F][B,=F]- | [B,F] x x2 | z [CE]z[CE] | z [EG]z[EG] | %30
 x4 | x4 | x4 | [B,F][B,F] z [B,^D] | [CE]B,[CE]A,- | A, x x2 | x4 | x4 | x4 | [DB]^FE^E | x4 | %41
 x2 z [D^F] | x4 | x4 |: x4 | x4 | z [^F,C]z[F,C] | z [CD]z[C^F] | z [B,=F]z[B,F] | %49
 z [B,F]z[B,^D] | x4 | x4 | x4 | x4 | x4 | B,[G,B,][A,C][^A,^C] | x4 | x4 | x4 | x4 | x4 | x4 | %62
 z [^F,C]z[F,C] | z [CD] x2 | x [D^G]z[DE] | z [DE]z[EF] | x4 | [CE][CE][CF][CG] | F2 E2 | D2 ^D2 | %70
 x4 | ED/E/ DC | (F2 E2 | D2 C2) | x4 | [CF]2 [C^F]2 | x4 | x4 | z [^F,=C]z[F,C] | z [CD]z[C^F] | %80
 z [C=F]z[B,F] | z [CF]z[B,F] |1 x2 !>![C^F]2 | x4 :|2 x4 | x4 |] %86
V:5
 x4 | x4 | x4 | x4 | x4 | x4 | x4 | x4 |: x4 | x4 | x4 | x4 :| x4 | x4 | x4 | x4 | x4 | x4 | x4 | %19
 x4 | x4 | x4 | x4 | x4 | x4 | x4 | x4 | x4 | x4 | x4 | x4 | x4 | x4 | x4 | x4 | x4 | x4 | x4 | %38
 x4 | x4 | x4 | x4 | G,,4- | G,,2 G,,2 |: x4 | x4 | x4 | x4 | x4 | x4 | x4 | x4 | x4 | x4 | x4 | %55
 x4 | x4 | x4 | x4 | x4 | x4 | x4 | x4 | x4 | x4 | x4 | x4 | x4 | x4 | x4 | x4 | x4 | x4 | x4 | %74
 x4 | x4 | x4 | x4 | x4 | x4 | x4 | x4 |1 x4 | x4 :|2 x4 | x4 |] %86

